assets/images/avatars/user/custom-avatars/season-f1/tire-green400.svg

<svg width="52" height="52" viewBox="0 0 52 52" fill="none" xmlns="http://www.w3.org/2000/svg">
<g clip-path="url(#clip0_26_81620)">
<rect width="52" height="52" fill="#03D47C"/>
<path d="M26 52C40.3594 52 52 40.3594 52 26C52 11.6406 40.3594 0 26 0C11.6406 0 0 11.6406 0 26C0 40.3594 11.6406 52 26 52Z" fill="#03D47C"/>
<path d="M25.9999 46.7669C37.4691 46.7669 46.7667 37.4693 46.7667 26.0002C46.7667 14.531 37.4691 5.2334 25.9999 5.2334C14.5308 5.2334 5.23315 14.531 5.23315 26.0002C5.23315 37.4693 14.5308 46.7669 25.9999 46.7669Z" fill="#03D47C" stroke="#002140" stroke-width="0.65" stroke-miterlimit="10"/>
<path d="M35.9197 18.4616C36.8369 19.5899 37.6918 20.7875 38.3563 21.9539C40.3188 25.4081 43.8214 31.8839 38.2975 36.9094C36.7503 38.5119 35.1894 39.391 35.1894 39.391C28.8867 43.4025 22.7224 39.4568 19.7908 36.7779C16.8592 34.099 14.0315 29.6964 13.097 27.6059C10.1793 21.0782 11.0411 16.9629 15.409 13.128L16.2674 12.4427C18.929 10.5149 21.4314 9.69802 24.1345 10.1307C23.072 10.0407 22.1582 10.2553 21.4625 10.8125C18.6452 13.0622 20.4934 20.0641 25.5951 26.4499C30.6934 32.8357 37.1138 36.1895 39.9311 33.9398C42.7277 31.7073 40.9314 24.8024 35.9231 18.4581L35.9197 18.4616ZM18.3821 14.1629C18.4444 13.5814 18.0845 13.0553 17.8422 13.0242C17.6207 12.9965 17.0496 12.9446 16.9181 14.1906C16.8281 15.0489 16.88 15.8554 16.9977 16.3918C17.1154 16.9283 17.6241 17.6725 18.1087 17.5859C18.5586 17.5063 18.5344 16.9318 18.4444 16.3192C18.3164 15.4643 18.3025 14.9105 18.3856 14.1629H18.3821ZM33.7184 36.3383C33.7876 35.6392 32.5382 35.1373 31.9325 34.7635C28.4333 32.7422 22.4663 27.0175 19.5935 20.4344C19.057 18.9323 18.5379 19.3719 18.5206 19.3684C18.5206 19.3684 17.683 19.493 18.1399 20.8844C20.5384 27.1317 26.4985 33.6352 31.4133 36.4041C33.2027 37.3005 33.6665 36.8471 33.7149 36.3383H33.7184Z" fill="#002140"/>
<path d="M35.9161 18.458C40.9243 24.8057 42.7206 31.7106 39.9241 33.9431C37.1067 36.1928 30.6898 32.839 25.5881 26.4532C20.4863 20.0639 18.6381 13.0655 21.4555 10.8158C22.1511 10.2586 23.0649 10.0474 24.1275 10.134C26.2041 10.4628 28.4019 11.5323 30.887 13.3943C32.0984 14.3046 34.1163 16.2463 35.9126 18.458H35.9161ZM38.8476 24.7364C38.017 23.0336 37.6293 22.8432 37.4078 22.9678C37.0444 23.1755 37.2451 23.6497 37.6847 24.643C38.7611 27.0727 38.7542 28.381 37.9858 29.627C37.4355 30.5235 36.3556 30.828 35.653 30.7969C34.9919 30.7692 34.6458 31.0392 34.7081 31.4476C34.812 32.1398 35.5769 32.8805 36.3349 33.0466C37.5151 33.3097 38.6746 33.1366 39.5572 31.7003C40.4363 30.2604 40.2079 27.5227 38.8511 24.7364H38.8476ZM26.8617 12.8198C26.6956 12.0583 25.9515 11.7918 25.4046 11.6568C24.4736 11.4284 22.9645 11.4423 22.0854 12.8786C21.2028 14.315 21.5974 17.0216 22.4938 19.3267C23.5668 22.0818 25.0689 23.9335 25.4704 24.4561C25.8961 25.0099 26.5087 25.6848 27.014 25.2833C27.4155 24.9614 26.6645 24.0719 26.2007 23.3416C25.7853 22.6909 25.0447 21.4899 24.4113 19.9566C23.3972 17.5131 23.3487 15.9313 24.1136 14.6819C24.6639 13.7854 25.5569 13.6539 26.038 13.5536C26.6472 13.4289 26.9517 13.2282 26.8617 12.8129V12.8198ZM33.9017 20.0501C30.8905 16.2809 27.2182 14.2042 25.6988 15.4191C25.2143 15.8067 25.0066 16.4817 25.0481 17.3469C25.0585 17.6031 25.0931 17.8765 25.1485 18.1638C25.3492 19.1987 25.8234 20.417 26.5364 21.6907C27.0417 22.594 27.6647 23.5251 28.3985 24.4423C28.9903 25.1864 29.6099 25.8613 30.2329 26.4601C31.4616 27.6438 32.7076 28.5229 33.8048 29.004C34.0747 29.1217 34.3309 29.2152 34.5801 29.2844C35.4142 29.5163 36.1168 29.4644 36.6014 29.0767C38.1208 27.8653 36.9094 23.8262 33.8982 20.0535L33.9017 20.0501Z" fill="#008C59"/>
<path d="M37.4078 22.9683C37.6293 22.8437 38.017 23.034 38.8477 24.7369C40.2044 27.5231 40.4328 30.2644 39.5537 31.7007C38.6711 33.1371 37.5117 33.3101 36.3314 33.0471C35.5734 32.881 34.812 32.1403 34.7047 31.448C34.6424 31.0396 34.9885 30.7662 35.6496 30.7974C36.3522 30.8285 37.432 30.5239 37.9824 29.6275C38.7507 28.3815 38.7611 27.0732 37.6813 24.6435C37.2417 23.6501 37.0409 23.176 37.4044 22.9683H37.4078Z" fill="#03D47C"/>
<path d="M25.4013 11.6573C25.9516 11.7923 26.6923 12.0554 26.8584 12.8203C26.9519 13.2356 26.6438 13.4364 26.0347 13.561C25.5536 13.6613 24.6641 13.7929 24.1103 14.6893C23.3419 15.9353 23.3938 17.5205 24.4079 19.964C25.0448 21.4973 25.782 22.6984 26.1973 23.349C26.6611 24.0793 27.4157 24.9688 27.0107 25.2907C26.5054 25.6922 25.8927 25.0173 25.467 24.4635C25.0621 23.9409 23.56 22.0857 22.4905 19.3341C21.594 17.029 21.1995 14.3259 22.082 12.886C22.9612 11.4462 24.4702 11.4358 25.4013 11.6643V11.6573Z" fill="#03D47C"/>
<path d="M25.6988 15.419C27.2182 14.2076 30.8905 16.2808 33.9017 20.05C36.9129 23.8226 38.1208 27.8618 36.6048 29.0732C36.1203 29.4608 35.4142 29.5127 34.5835 29.2808C34.4935 27.4395 33.2787 24.7502 31.2297 22.1821C29.1807 19.6139 26.8271 17.8383 25.0516 17.3434C25.01 16.4781 25.2177 15.8032 25.7023 15.4156L25.6988 15.419Z" fill="#085239"/>
<path d="M25.0518 17.3472C26.8273 17.8422 29.1809 19.6212 31.2299 22.1859C33.2789 24.7506 34.4937 27.4433 34.5837 29.2812C34.3345 29.212 34.0784 29.1185 33.8084 29.0008C33.67 27.8102 33.1162 26.3358 32.2128 24.8059C32.0363 24.5083 31.846 24.2072 31.6417 23.9061C31.351 23.4734 31.036 23.0408 30.6934 22.6116C30.1604 21.9471 29.6066 21.3344 29.0459 20.7945C28.8175 20.573 28.589 20.3619 28.3606 20.1646C27.2461 19.1989 26.1316 18.5067 25.1556 18.1606C25.1002 17.8733 25.0656 17.5999 25.0552 17.3438L25.0518 17.3472Z" fill="#00B268"/>
<path d="M30.6934 22.6154C31.0361 23.0446 31.351 23.4772 31.6418 23.9099L29.392 24.4533L29.3505 24.474C29.1774 24.2144 28.9836 23.9445 28.769 23.6745C28.5752 23.4322 28.3779 23.2073 28.1841 22.9996L28.2083 22.9719L29.0044 20.8537L29.0459 20.8018C29.6066 21.3452 30.1638 21.9543 30.6934 22.6189V22.6154Z" fill="#002140"/>
<path d="M29.3919 24.4496L31.6416 23.9062C31.8458 24.2074 32.0362 24.5085 32.2127 24.8061L32.14 24.8373L29.8107 25.2526C29.6826 25.0034 29.5303 24.7369 29.3503 24.467L29.3919 24.4462V24.4496Z" fill="#00B268"/>
<path d="M29.0458 20.794L29.0043 20.8459L28.2082 22.9641L28.184 22.9918C27.9694 22.7634 27.7514 22.5557 27.5437 22.3757L28.3605 20.1641C28.589 20.3613 28.8174 20.5725 29.0458 20.794Z" fill="#00B268"/>
<path d="M32.1401 24.8407L32.2128 24.8096C33.1162 26.3394 33.6699 27.8138 33.8084 29.0045C32.7112 28.5234 31.4652 27.6442 30.2365 26.4605C30.1984 26.1352 30.0496 25.7199 29.8108 25.2526L32.1401 24.8373V24.8407Z" fill="#002140"/>
<path d="M28.3571 20.1675L27.5403 22.3792C27.1769 22.0642 26.8343 21.8289 26.5366 21.6939C25.8236 20.4202 25.346 19.2019 25.1487 18.167C26.1247 18.5096 27.2392 19.2019 28.3537 20.171L28.3571 20.1675Z" fill="#002140"/>
<path d="M29.8108 25.2519C30.0496 25.7192 30.195 26.1345 30.2365 26.4599C29.6135 25.8611 28.9974 25.1862 28.4021 24.442C27.6718 23.5248 27.0454 22.5938 26.54 21.6904C26.8342 21.8289 27.1803 22.0642 27.5438 22.3757C27.7514 22.5557 27.9695 22.7634 28.1841 22.9918C28.3814 23.1995 28.5752 23.4245 28.769 23.6667C28.9836 23.9332 29.1774 24.2032 29.3505 24.4663C29.5305 24.7362 29.6827 25.0027 29.8108 25.2519Z" fill="#00B268"/>
<path d="M17.8421 13.0205C18.0878 13.0516 18.4443 13.5777 18.382 14.1592C18.3024 14.9103 18.3163 15.4606 18.4409 16.3155C18.5308 16.9281 18.5551 17.5026 18.1051 17.5823C17.6206 17.6688 17.1152 16.9246 16.9941 16.3882C16.8764 15.8517 16.8245 15.0452 16.9145 14.1869C17.046 12.9409 17.6171 12.9928 17.8386 13.0205H17.8421Z" fill="#B1F2D6"/>
<path d="M31.9358 34.7639C32.5414 35.1377 33.7909 35.6361 33.7217 36.3388C33.6732 36.8475 33.2094 37.3009 31.42 36.4045C26.5018 33.6391 20.5452 27.1322 18.1466 20.8848C17.6897 19.4969 18.5273 19.3689 18.5273 19.3689C18.5481 19.3723 19.0638 18.9327 19.6003 20.4349C22.473 27.0179 28.44 32.7426 31.9392 34.7639H31.9358Z" fill="#B1F2D6"/>
<path d="M25.0518 17.3467C26.8273 17.8416 29.1809 19.6206 31.2299 22.1853C33.2789 24.75 34.4937 27.4428 34.5837 29.2806" stroke="#002140" stroke-width="0.65" stroke-miterlimit="10"/>
<path d="M25.1521 18.1641C26.1281 18.5067 27.2426 19.1989 28.3571 20.1681C28.5855 20.3653 28.814 20.5765 29.0424 20.798C29.6031 21.3414 30.1604 21.9505 30.6899 22.6151C31.0326 23.0443 31.3475 23.4769 31.6383 23.9095C31.8425 24.2107 32.0328 24.5118 32.2093 24.8094C33.1127 26.3392 33.6665 27.8137 33.8049 29.0043" stroke="#00B268" stroke-width="0.65" stroke-miterlimit="10"/>
<path d="M26.54 21.6904C26.8342 21.8289 27.1803 22.0642 27.5438 22.3757C27.7514 22.5557 27.9695 22.7634 28.1841 22.9918C28.3814 23.1995 28.5752 23.4245 28.769 23.6667C28.9836 23.9332 29.1774 24.2032 29.3505 24.4663C29.5305 24.7362 29.6827 25.0027 29.8108 25.2519C30.0496 25.7192 30.195 26.1345 30.2365 26.4599" stroke="#00B268" stroke-width="0.65" stroke-miterlimit="10"/>
<path d="M29.3921 24.4487L31.6418 23.9053" stroke="#00B268" stroke-width="0.65" stroke-miterlimit="10"/>
<path d="M32.1402 24.8398L29.8108 25.2517L29.7485 25.2621" stroke="#00B268" stroke-width="0.65" stroke-miterlimit="10"/>
<path d="M28.3571 20.168L27.5437 22.3796L27.5229 22.4315" stroke="#00B268" stroke-width="0.65" stroke-miterlimit="10"/>
<path d="M28.2083 22.9678L29.0043 20.8496" stroke="#00B268" stroke-width="0.65" stroke-miterlimit="10"/>
<path d="M35.9162 18.4579C34.1233 16.2462 32.1055 14.3045 30.8907 13.3942C28.4056 11.5322 26.2077 10.4627 24.1311 10.1339C21.4245 9.70121 18.9255 10.5146 16.2639 12.4459L15.4056 13.1312C11.0376 16.9661 10.1793 21.0814 13.0935 27.6091C14.0246 29.6996 16.8523 34.1022 19.7874 36.7811C22.7189 39.46 28.8832 43.4057 35.1859 39.3942C35.1859 39.3942 36.7503 38.5151 38.294 36.9126C43.818 31.8905 40.3188 25.4113 38.3528 21.9571C37.6918 20.7907 36.8334 19.5931 35.9162 18.4648" stroke="#002140" stroke-width="0.65" stroke-miterlimit="10"/>
<path d="M24.1346 10.134C27.3673 10.4039 31.9567 13.4947 35.7986 18.3057C35.8401 18.3576 35.8782 18.406 35.9197 18.458C40.928 24.8057 42.7243 31.7106 39.9277 33.9431C37.1103 36.1928 30.6934 32.839 25.5917 26.4532C20.49 20.0639 18.6418 13.0655 21.4591 10.8158C22.1548 10.2586 23.0686 10.0474 24.1311 10.134H24.1346Z" stroke="#002140" stroke-width="0.65" stroke-miterlimit="10"/>
<path d="M25.0518 17.3469C25.0103 16.4816 25.2179 15.8067 25.7025 15.419C27.2219 14.2076 30.8942 16.2808 33.9054 20.05C36.9166 23.8226 38.1245 27.8618 36.6085 29.0732C36.124 29.4608 35.4179 29.5127 34.5872 29.2808C34.338 29.2116 34.0819 29.1182 33.8119 29.0005C32.7147 28.5194 31.4687 27.6403 30.24 26.4566C29.617 25.8578 29.001 25.1829 28.4056 24.4387C27.6753 23.5215 27.0489 22.5905 26.5436 21.6871C25.8306 20.4134 25.3529 19.1951 25.1556 18.1602C25.1003 17.873 25.0657 17.5995 25.0553 17.3434L25.0518 17.3469Z" stroke="#002140" stroke-width="0.65" stroke-miterlimit="10"/>
</g>
<defs>
<clipPath id="clip0_26_81620">
<rect width="52" height="52" fill="white"/>
</clipPath>
</defs>
</svg>

<svg xmlns="http://www.w3.org/2000/svg" width="52" height="52" fill="none" viewBox="0 0 52 52"><g clip-path="url(#a)"><path fill="#03d47c" d="M0 0h52v52H0z"/><path fill="#03d47c" d="M26 52c14.36 0 26-11.64 26-26S40.36 0 26 0 0 11.64 0 26s11.64 26 26 26"/><path fill="#03d47c" stroke="#002140" stroke-miterlimit="10" stroke-width=".65" d="M26 46.767c11.47 0 20.767-9.298 20.767-20.767S37.469 5.233 26 5.233C14.53 5.233 5.233 14.531 5.233 26c0 11.47 9.298 20.767 20.767 20.767Z"/><path fill="#002140" d="M35.92 18.462c.917 1.128 1.772 2.326 2.436 3.492 1.963 3.454 5.465 9.93-.059 14.955-1.547 1.603-3.108 2.482-3.108 2.482-6.302 4.012-12.467.066-15.398-2.613-2.932-2.679-5.76-7.082-6.694-9.172-2.918-6.528-2.056-10.643 2.312-14.478l.858-.685c2.662-1.928 5.164-2.745 7.868-2.312-1.063-.09-1.977.124-2.673.681-2.817 2.25-.969 9.252 4.133 15.638 5.098 6.386 11.519 9.74 14.336 7.49 2.797-2.233 1-9.138-4.008-15.482zm-17.538-4.3c.062-.58-.298-1.107-.54-1.138-.221-.027-.792-.08-.924 1.167-.09.858-.038 1.664.08 2.2s.626 1.282 1.11 1.195c.45-.08.426-.654.336-1.267-.128-.855-.142-1.408-.058-2.156zm15.336 22.176c.07-.699-1.18-1.2-1.786-1.575-3.499-2.02-9.466-7.745-12.338-14.329-.537-1.502-1.056-1.062-1.073-1.066 0 0-.838.125-.381 1.516 2.398 6.248 8.359 12.751 13.273 15.52 1.79.896 2.253.443 2.302-.066z"/><path fill="#008c59" d="M35.916 18.458c5.008 6.348 6.805 13.253 4.008 15.485-2.817 2.25-9.234-1.104-14.336-7.49-5.102-6.39-6.95-13.387-4.132-15.637.695-.557 1.609-.769 2.672-.682 2.076.329 4.274 1.398 6.759 3.26 1.211.91 3.23 2.852 5.026 5.064zm2.932 6.278c-.831-1.702-1.219-1.893-1.44-1.768-.364.207-.163.682.277 1.675 1.076 2.43 1.07 3.738.3 4.984-.55.896-1.63 1.201-2.332 1.17-.661-.028-1.007.242-.945.65.104.693.869 1.433 1.627 1.6 1.18.263 2.34.09 3.222-1.347.88-1.44.65-4.177-.706-6.964zM26.862 12.82c-.166-.762-.91-1.028-1.457-1.163-.931-.229-2.44-.215-3.32 1.222-.882 1.436-.488 4.143.409 6.448 1.073 2.755 2.575 4.606 2.976 5.13.426.553 1.039 1.228 1.544.826.402-.322-.35-1.211-.813-1.941a21.6 21.6 0 0 1-1.79-3.385c-1.014-2.444-1.062-4.026-.297-5.275.55-.897 1.443-1.028 1.924-1.128.61-.125.914-.326.824-.741zm7.04 7.23c-3.012-3.77-6.684-5.846-8.203-4.63-.485.387-.692 1.062-.65 1.927q.016.385.1.817c.2 1.035.674 2.253 1.387 3.527a20.3 20.3 0 0 0 1.862 2.751 20.5 20.5 0 0 0 1.835 2.018c1.229 1.184 2.475 2.063 3.572 2.544q.403.177.775.28c.834.232 1.537.18 2.021-.207 1.52-1.212.308-5.25-2.703-9.024z"/><path fill="#03d47c" d="M37.408 22.968c.221-.124.609.066 1.44 1.769 1.356 2.786 1.585 5.527.706 6.964-.883 1.436-2.042 1.61-3.223 1.346-.758-.166-1.519-.907-1.626-1.599-.063-.408.284-.682.945-.65.702.03 1.782-.274 2.332-1.17.769-1.247.78-2.555-.3-4.985-.44-.993-.641-1.467-.278-1.675zM25.401 11.657c.55.135 1.291.398 1.457 1.163.094.416-.214.616-.823.741-.481.1-1.37.232-1.925 1.128-.768 1.246-.716 2.831.298 5.275a22 22 0 0 0 1.79 3.385c.463.73 1.218 1.62.813 1.942-.506.401-1.118-.274-1.544-.828-.405-.522-1.907-2.377-2.976-5.129-.897-2.305-1.291-5.008-.409-6.448.88-1.44 2.388-1.45 3.32-1.222z"/><path fill="#085239" d="M25.699 15.419c1.52-1.211 5.191.862 8.203 4.631 3.01 3.773 4.219 7.812 2.703 9.023-.485.388-1.19.44-2.021.208-.09-1.841-1.305-4.53-3.354-7.099s-4.403-4.344-6.178-4.839c-.042-.865.166-1.54.65-1.927z"/><path fill="#00b268" d="M25.052 17.347c1.775.495 4.129 2.274 6.178 4.839s3.264 5.257 3.354 7.095a6 6 0 0 1-.776-.28c-.138-1.19-.692-2.665-1.595-4.195a19.5 19.5 0 0 0-3.167-4.011 16 16 0 0 0-.685-.63c-1.115-.966-2.23-1.658-3.205-2.004a5.5 5.5 0 0 1-.1-.817z"/><path fill="#002140" d="M30.693 22.615q.514.645.949 1.295l-2.25.543-.041.021a12 12 0 0 0-.582-.8 12 12 0 0 0-.585-.674l.024-.028.796-2.118.042-.052a19 19 0 0 1 1.647 1.817z"/><path fill="#00b268" d="m29.392 24.45 2.25-.544q.306.453.57.9l-.072.031-2.33.416a8 8 0 0 0-.46-.786l.042-.02zm-.346-3.656-.042.052-.796 2.118-.024.028a9 9 0 0 0-.64-.616l.816-2.212q.343.297.686.63"/><path fill="#002140" d="m32.14 24.84.073-.03c.903 1.53 1.457 3.004 1.595 4.195-1.097-.482-2.343-1.36-3.572-2.544-.038-.326-.186-.741-.425-1.208l2.33-.416zm-3.783-4.672-.817 2.211c-.363-.315-.706-.55-1.003-.685-.713-1.274-1.191-2.492-1.388-3.527.976.343 2.09 1.035 3.205 2.004z"/><path fill="#00b268" d="M29.81 25.252c.24.467.385.883.427 1.208a21 21 0 0 1-1.835-2.018 20.6 20.6 0 0 1-1.862-2.752c.294.139.64.374 1.004.686.207.18.425.387.64.616q.295.31.585.675c.215.266.408.536.582.8.18.27.332.536.46.785"/><path fill="#b1f2d6" d="M17.842 13.02c.246.032.602.558.54 1.14-.08.75-.066 1.3.059 2.156.09.612.114 1.187-.336 1.266-.484.087-.99-.657-1.11-1.194-.119-.536-.17-1.343-.08-2.201.131-1.246.702-1.194.924-1.166zm14.094 21.744c.605.374 1.855.872 1.786 1.575-.049.508-.513.962-2.302.066-4.918-2.766-10.875-9.273-13.273-15.52-.457-1.388.38-1.516.38-1.516.021.003.537-.436 1.073 1.066 2.873 6.583 8.84 12.308 12.34 14.329z"/><path stroke="#002140" stroke-miterlimit="10" stroke-width=".65" d="M25.052 17.347c1.775.495 4.129 2.274 6.178 4.838s3.264 5.258 3.354 7.096"/><path stroke="#00b268" stroke-miterlimit="10" stroke-width=".65" d="M25.152 18.164c.976.343 2.09 1.035 3.205 2.004q.343.297.685.63a19.6 19.6 0 0 1 3.167 4.011c.904 1.53 1.457 3.005 1.596 4.195M26.54 21.69c.294.139.64.374 1.004.686.207.18.425.387.64.616q.295.31.585.675c.215.266.408.536.582.8.18.27.332.536.46.785.239.467.384.883.425 1.208m-.844-2.011 2.25-.544"/><path stroke="#00b268" stroke-miterlimit="10" stroke-width=".65" d="m32.14 24.84-2.33.412-.061.01m-1.392-5.094-.813 2.212-.021.052m.685.536.796-2.118"/><path stroke="#002140" stroke-miterlimit="10" stroke-width=".65" d="M35.916 18.458c-1.793-2.212-3.81-4.153-5.025-5.064-2.485-1.862-4.683-2.931-6.76-3.26-2.707-.433-5.206.38-7.867 2.312l-.858.685c-4.368 3.835-5.227 7.95-2.312 14.478.93 2.09 3.758 6.493 6.693 9.172 2.932 2.679 9.096 6.625 15.399 2.613 0 0 1.564-.879 3.108-2.481 5.524-5.022 2.025-11.502.059-14.956-.661-1.166-1.52-2.364-2.437-3.492"/><path stroke="#002140" stroke-miterlimit="10" stroke-width=".65" d="M24.135 10.134c3.232.27 7.822 3.36 11.664 8.172l.12.152c5.009 6.348 6.805 13.253 4.009 15.485-2.818 2.25-9.235-1.104-14.336-7.49-5.102-6.39-6.95-13.387-4.133-15.637.696-.557 1.61-.769 2.672-.682z"/><path stroke="#002140" stroke-miterlimit="10" stroke-width=".65" d="M25.052 17.347c-.042-.865.166-1.54.65-1.928 1.52-1.211 5.192.862 8.203 4.631 3.012 3.773 4.22 7.812 2.703 9.023-.484.388-1.19.44-2.02.208a6 6 0 0 1-.776-.28c-1.097-.482-2.343-1.36-3.572-2.544a21 21 0 0 1-1.834-2.018 20.6 20.6 0 0 1-1.862-2.752c-.713-1.274-1.191-2.492-1.388-3.527a5.5 5.5 0 0 1-.1-.817z"/></g><defs><clipPath id="a"><path fill="#fff" d="M0 0h52v52H0z"/></clipPath></defs></svg>
